!!!COM:	Bach, Johann Sebastian
!!!CDT:	1685/02/21/-1750/07/28/
!!!OTL@@DE:	Helft mir Gotts G&uuml;te preisen
!!!SCT:	BWV 16/6
!!!PC#:	99
!!!AGN:	chorale
**kern	**kern	**kern	**kern
*ICvox	*ICvox	*ICvox	*ICvox
*Ibass	*Itenor	*Ialto	*Isoprn
*I"Bass	*I"Tenor	*I"Alto	*I"Soprano
*>[A,A,B]	*>[A,A,B]	*>[A,A,B]	*>[A,A,B]
*>norep[A,B]	*>norep[A,B]	*>norep[A,B]	*>norep[A,B]
*>A	*>A	*>A	*>A
*clefF4	*clefGv2	*clefG2	*clefG2
*k[]	*k[]	*k[]	*k[]
*a:	*a:	*a:	*a:
*M4/4	*M4/4	*M4/4	*M4/4
*met(c)	*met(c)	*met(c)	*met(c)
*MM100	*MM100	*MM100	*MM100
8AL	4c	4e	4a
8GJ	.	.	.
=1	=1	=1	=1
4F	4c	4f	4a
8EL	4d	4f	4b
8DJ	.	.	.
4E	4G	4g	4cc
4F#	4d	4a	4dd
=2	=2	=2	=2
4G	4d	2g	4.b
8F#L	4e	.	.
8EJ	.	.	8cc
4F#;	4d;	4a;	4dd;
4G#	4B	4e	4ee
=3	=3	=3	=3
8AL	8cL	4e	4cc
8BJ	8dJ	.	.
8cL	4e	4a	4a
8AJ	.	.	.
4D	4fnX	4a	4b
4E	8eL	4g#	4b
.	8dJ	.	.
=4	=4	=4	=4
2.AA;	2.c;	2.e;	2.a;
=:|!	=:|!	=:|!	=:|!
*>B	*>B	*>B	*>B
4C	8GnXL	8eL	4ee
.	8AJ	8f#J	.
=5	=5	=5	=5
8BBL	4B	4g#	4dd
8BJ	.	.	.
4A	8eL	8aL	4cc
.	8cJ	8gJ	.
4G#	8dL	4fnX	4b
.	8BJ	.	.
4A	4c	8eL	4a
.	.	8f#J	.
=6	=6	=6	=6
2.E;	2.B;	2.g#;	2.b;
4E	4e	4g#	4b
=7	=7	=7	=7
4A	4e	4a	4cc
8GnXL	4f	4b	4dd
8FJ	.	.	.
4c	4g	8ccL	4ee
.	.	8bJ	.
4E	8cL	8aL	4ee
.	8BJ	8gnXJ	.
=8	=8	=8	=8
4F#	4A	8aL	2dd
.	.	8gJ	.
8EL	4d	4f#	.
8DJ	.	.	.
4G;	4d;	4g;	4b;
8GL	4d	4g	4b
8FJ	.	.	.
=9	=9	=9	=9
4E	4G	4g	4cc
4D	4A	8gL	4dd
.	.	8fnXJ	.
4C#	4B-	8eL	4ee
.	.	8fJ	.
8DL	8AL	4g	4ee
8EJ	8GJ	.	.
=10	=10	=10	=10
4F	2A	8fL	4.dd
.	.	8gJ	.
8EL	.	4a	.
8DJ	.	.	8cc
4E;	4e;	4g#;	4b;
4GG#	4e	4b	4ee
=11	=11	=11	=11
4AA	4E	4a	8ddL
.	.	.	8ccJ
4C	4A	4e	8bL
.	.	.	8aJ
4D	4A	4f	4b
4E	4G#	8eL	4b
.	.	8dJ	.
=12	=12	=12	=12
2.AA;	2.E;	2.c#;	2.a;
==	==	==	==
*-	*-	*-	*-
!!!hum2abc: -Q ''
!!!title: @{PC#}. @{OTL@@DE}
!!!YOR1: 371 vierstimmige Choralges&auml;nge von Johann Sebastian Bach, 
!!!YOR2: 4th ed. by Alfred D&ouml;rffel (Leipzig: Breitkopf und H&auml;rtel, 
!!!YOR2: c.1875). 178 pp. Plate "V.A.10".  reprint: J.S. Bach, 371 Four-Part 
!!!YOR4: Chorales (New York: Associated Music Publishers, Inc., c.1940).
!!!SMS: B&H, 4th ed, Alfred D&ouml;rffel, c.1875, plate V.A.10
!!!EED:  Craig Stuart Sapp
!!!EEV:  2009/05/22
